X:3
T:Fife Hunt
R:reel
C:Wm Gow
O:Scottish
D:John Campbell, Cape Breton Violin Music (1975-2006)
B:Skye Colection
Z:Paul Stewart Cranford (P.S.C.), <http://www.cranfordpub.com>
L:1/8
M:C|
Q:333
K:C
ed c2 Gc EC|Dddc defa|ed c2 Gc ED|CEcA c2 cf:|
||ecgc acgc|Addc d2 df|ecgc acgc|GcBd c2 cf|
ecgc acgc|Addc d2 df|e<gce f<adf|edcA cagf|]
